bilibilitv.svg

<?xml version="1.0" encoding="UTF-8"?>
<svg viewBox="0 0 8 8" version="1.1" xmlns="http://www.w3.org/2000/svg" xmlns:xlink="http://www.w3.org/1999/xlink">
    <title>Shape</title>
    <g id="Page-1" stroke="none" stroke-width="1" fill="none" fill-rule="evenodd">
        <path d="M2.37108492,0.00889613455 C2.15295038,0.0556693399 1.99608583,0.235542819 1.99549027,0.439601821 C1.9951707,0.547514288 2.01887687,0.590670559 2.24199378,0.888305024 C2.3249799,0.998991926 2.39287368,1.09810173 2.39287368,1.10854581 C2.39287368,1.11951282 2.37600918,1.12760372 2.35292762,1.12771992 C2.26325961,1.12818475 1.41855295,1.18621548 1.31069859,1.19931779 C0.884960736,1.25105883 0.538940697,1.46040524 0.312976728,1.80296813 C0.138550439,2.06736747 0.106724323,2.19818719 0.054939703,2.86335446 C0.0462387247,2.97520343 0.0325408574,3.14515576 0.0245080678,3.2410263 C-0.0115450675,3.67099117 -0.00691132446,5.08666503 0.0324246507,5.65957869 C0.0634082678,6.11089655 0.0938108513,6.37937765 0.127873946,6.50225173 C0.240478259,6.90864116 0.560569673,7.2525259 0.976604262,7.41409682 C1.17464957,7.49099662 1.68033764,7.53794414 2.84317472,7.58736104 C3.25740811,7.60496636 4.92369628,7.60023094 5.37067091,7.58018528 C5.76988458,7.56227492 5.90713924,7.55342868 6.452846,7.51040314 C6.90481752,7.47475673 7.11717078,7.40455335 7.37523686,7.20546218 C7.66326974,6.9832604 7.84344826,6.65902913 7.89030862,6.2786119 C8.00827297,5.32074894 8.03270543,4.14383632 7.95576206,3.12481958 C7.88988737,2.25225236 7.84651321,2.0545121 7.66113444,1.78117937 C7.59539049,1.68424844 7.42418894,1.51166693 7.31990793,1.43720747 C7.07414524,1.2617208 6.82759816,1.19373987 6.32937636,1.16412168 C6.25347885,1.15960414 6.16523437,1.15340161 6.13327752,1.15032213 C6.10132067,1.14724265 5.96242459,1.14011046 5.82460342,1.13445991 C5.62140144,1.12613661 5.57403267,1.12025364 5.57403267,1.10334556 C5.57403267,1.09188467 5.61487934,1.03087615 5.66481918,0.967775896 C5.84434403,0.740911324 5.94804401,0.584947378 5.96756674,0.51244891 C5.99705419,0.402938601 5.95330236,0.262473726 5.85621165,0.155011561 C5.75514085,0.0431335398 5.57080794,-0.0227411453 5.44636507,0.00853298855 C5.29581926,0.046387328 5.24540007,0.10476668 4.85626733,0.691741355 C4.75829054,0.839541779 4.66278314,0.98825733 4.64404481,1.02220422 C4.61157956,1.08103387 4.60685866,1.08390999 4.54365673,1.08338706 C4.50718234,1.08309654 4.22750182,1.08575477 3.92213961,1.08932813 L3.36696199,1.09580665 L3.32123465,1.02086784 C3.16602605,0.766476803 2.87102076,0.326460052 2.76027575,0.184150396 C2.64094598,0.0308156274 2.52094801,-0.0232204981 2.37108492,0.00889613455 M3.00295897,1.86938027 C2.38399839,1.88861248 1.82930013,1.92202191 1.44503356,1.96320267 C1.22949914,1.98629876 1.1484159,2.01890927 1.03767089,2.12711225 C0.876245232,2.28480477 0.85226307,2.38250557 0.80878723,3.0594533 C0.742767287,4.08738891 0.75501257,5.3298857 0.839088133,6.13328087 C0.859293576,6.32644549 0.90024192,6.4199919 1.01849678,6.54317102 C1.19402704,6.7260223 1.21933105,6.73014764 2.63981296,6.807367 C3.84494929,6.87287854 6.39671816,6.80315451 6.72883697,6.69564877 C6.82241243,6.66534787 6.90632821,6.60754955 6.98292296,6.52061239 C7.11012575,6.37626912 7.12562482,6.32001054 7.16411829,5.86294045 C7.21273628,5.28582882 7.22270101,5.02337594 7.22236109,4.33046432 C7.22206187,3.73850728 7.216513,3.54290231 7.1893642,3.1683971 C7.13256817,2.38478613 7.11063415,2.28964188 6.95109685,2.13511599 C6.80679715,1.99534836 6.72388366,1.9668196 6.38747972,1.94119602 C5.36674894,1.86346825 4.07483524,1.83604347 3.00295897,1.86938027 M2.85770056,3.2047117 C2.54487207,3.29230252 2.33989794,3.35826436 2.02246475,3.47351238 C1.60975658,3.62334642 1.46638654,3.69185028 1.40964861,3.76629521 C1.37422008,3.81279243 1.3688891,3.83256209 1.36942656,3.91540296 C1.37019643,4.03121748 1.39416406,4.10634513 1.4509601,4.17104322 C1.52976278,4.26079839 1.64531584,4.27551306 1.80048086,4.21556492 C2.03075901,4.12657962 2.08941435,4.10426793 2.2185636,4.0565215 C2.42870893,3.97885183 2.78749718,3.85353741 2.97390728,3.79270319 C3.14932133,3.73547138 3.20277642,3.70063841 3.24196714,3.61805901 C3.31235936,3.46970661 3.2122618,3.23194765 3.06181767,3.19015681 C2.99438872,3.17141848 2.97053729,3.17313253 2.85770056,3.2047117 M4.91059398,3.19092668 C4.85169169,3.20886609 4.7561843,3.31698192 4.73409049,3.39074414 C4.71131398,3.46677239 4.71250509,3.55825613 4.73701019,3.61553152 C4.7753584,3.70515595 4.82593738,3.7336266 5.12373163,3.83320123 C5.36384377,3.91348555 5.61191607,4.00024839 5.8354978,4.08215961 C5.86346004,4.09240032 5.96804609,4.13223018 6.06791124,4.17066555 C6.30484222,4.26185877 6.33132283,4.26726239 6.4168655,4.24185669 C6.52084146,4.21098928 6.58811063,4.1197089 6.6122671,3.97673106 C6.637789,3.82567685 6.56892199,3.71812752 6.40200556,3.64834539 C6.35007569,3.62662926 6.28144109,3.59711275 6.24948424,3.58276122 C6.21752739,3.56839516 6.10640472,3.5258054 6.00254496,3.48811085 C5.84024775,3.42919404 5.68968741,3.37951566 5.18909791,3.21967332 C5.07806239,3.18421574 4.96942363,3.17300179 4.91059398,3.19092668 M2.82336148,4.60843079 C2.77899956,4.65280724 2.77467086,4.7036041 2.80536396,4.81999966 C2.85642229,5.01358553 2.92280538,5.13872564 3.03427668,5.25150426 C3.20549275,5.42472491 3.46142353,5.47098971 3.67941282,5.36811771 C3.78012047,5.32058916 3.88732117,5.2317346 3.9328742,5.15801596 C3.95001469,5.13028613 3.97014751,5.10759677 3.97762831,5.10759677 C3.98510912,5.10759677 4.03462771,5.1536001 4.08767608,5.20982963 C4.16126399,5.28784792 4.21014344,5.32458377 4.29403017,5.36493655 C4.39568199,5.413816 4.41382477,5.41778156 4.53505743,5.41754914 C4.70448683,5.41721505 4.79742316,5.38258545 4.9144869,5.27614009 C5.02160045,5.17872981 5.08637117,5.07196488 5.1474959,4.89200425 C5.20818486,4.71333641 5.20923072,4.66792864 5.1539018,4.61259971 C5.09550792,4.55420583 5.03319207,4.55515001 4.97703517,4.61525794 C4.95386645,4.64006807 4.93489571,4.67067402 4.93489571,4.68328245 C4.93489571,4.76327625 4.81993821,4.9901844 4.74420048,5.05969055 C4.60768663,5.18499044 4.39305282,5.15194416 4.26375831,4.98575402 C4.22943375,4.94160999 4.17500543,4.8548181 4.14281617,4.79286539 C4.07050654,4.65366426 4.01920127,4.61605686 3.94047122,4.64452751 C3.89592046,4.66063666 3.88058118,4.68076948 3.8205604,4.80178425 C3.7353954,4.97347968 3.62218101,5.09617946 3.52461094,5.12250028 C3.39881716,5.15641811 3.27560898,5.11645753 3.18875899,5.01354195 C3.15075939,4.96852637 3.06733749,4.79058483 3.04079878,4.6979245 C3.02659251,4.64831875 3.00419366,4.60606308 2.9849905,4.59261215 C2.93516687,4.55770656 2.86746193,4.56433034 2.82336148,4.60843079" id="Shape" fill="#24ADE5"></path>
    </g>
</svg>

<svg viewBox="0 0 8 8" xmlns="http://www.w3.org/2000/svg"><path d="M2.371.009c-.218.047-.375.227-.376.43 0 .109.024.152.247.45.083.11.15.21.15.22 0 .01-.016.019-.04.019-.089 0-.933.058-1.041.071a1.353 1.353 0 0 0-.998.604c-.174.264-.206.395-.258 1.06l-.03.378c-.037.43-.032 1.846.007 2.419.031.45.062.72.096.842.112.407.433.75.849.912.198.077.703.124 1.866.173.414.018 2.08.013 2.528-.007.399-.018.536-.027 1.082-.07.452-.035.664-.105.922-.305.288-.222.468-.546.515-.926.118-.958.143-2.135.066-3.154-.066-.873-.11-1.07-.295-1.344a1.82 1.82 0 0 0-.341-.344c-.246-.175-.492-.243-.99-.273a10.38 10.38 0 0 0-.505-.03c-.204-.008-.251-.014-.251-.03 0-.012.04-.073.09-.136.18-.227.284-.383.304-.456.03-.11-.015-.25-.112-.357-.1-.112-.285-.178-.41-.146-.15.037-.2.096-.59.683a9.283 9.283 0 0 0-.212.33c-.032.059-.037.062-.1.061l-.622.006-.555.007-.046-.075c-.155-.255-.45-.695-.56-.837-.12-.153-.24-.207-.39-.175m.632 1.86c-.619.02-1.174.053-1.558.094-.216.023-.297.056-.407.164-.162.158-.186.256-.23.932C.744 4.087.756 5.33.84 6.133c.02.193.061.287.18.41.175.183.2.187 1.62.264 1.206.066 3.758-.004 4.09-.111a.573.573 0 0 0 .254-.175c.127-.145.143-.201.181-.658.049-.577.059-.84.058-1.533 0-.591-.005-.787-.033-1.162-.056-.783-.078-.878-.238-1.033-.144-.14-.227-.168-.564-.194a34.087 34.087 0 0 0-3.384-.072m-.145 1.336c-.313.087-.518.153-.836.269-.412.15-.556.218-.612.292-.036.047-.041.067-.04.15 0 .115.024.19.081.255.079.09.194.105.35.045a24.914 24.914 0 0 1 1.173-.423c.175-.058.229-.092.268-.175.07-.148-.03-.386-.18-.428-.068-.019-.091-.017-.204.015M4.91 3.19c-.06.018-.155.126-.177.2a.362.362 0 0 0 .003.225c.038.09.089.118.387.217a27.097 27.097 0 0 1 .944.338c.237.09.263.096.349.07.104-.03.171-.121.195-.264.026-.151-.043-.259-.21-.329a5.63 5.63 0 0 0-.4-.16 21.753 21.753 0 0 0-.813-.268.544.544 0 0 0-.278-.03M2.823 4.609c-.044.045-.048.096-.018.212a.885.885 0 0 0 .23.432c.17.173.426.219.644.116a.66.66 0 0 0 .254-.21c.017-.028.037-.05.045-.05.007 0 .057.046.11.102a.618.618 0 0 0 .206.155c.102.049.12.053.241.053.17 0 .262-.035.38-.142a.83.83 0 0 0 .232-.384c.061-.179.062-.224.007-.28-.058-.058-.12-.057-.177.003-.023.025-.042.056-.042.068 0 .08-.115.307-.19.377-.137.125-.352.092-.481-.074a1.532 1.532 0 0 1-.121-.193c-.072-.14-.124-.177-.203-.148-.044.016-.06.036-.12.157-.085.171-.198.294-.295.32a.319.319 0 0 1-.336-.108 1.32 1.32 0 0 1-.148-.316c-.014-.05-.037-.092-.056-.105a.126.126 0 0 0-.162.015" fill="#24ADE5" fill-rule="evenodd"/></svg>
